src/svg/uf2c1-id-badge.svg

<!-- Generated by IcoMoon.io -->
<svg version="1.1" xmlns="http://www.w3.org/2000/svg" width="23" height="32" viewBox="0 0 23 32">
<path d="M18.286 22.464c0 1.536-1.018 2.679-2.286 2.679h-9.143c-1.268 0-2.286-1.143-2.286-2.679 0-2.786 0.696-5.875 3.5-5.875 0.875 0.821 2.054 1.339 3.357 1.339s2.482-0.518 3.357-1.339c2.804 0 3.5 3.089 3.5 5.875zM15.536 13.196c0 2.25-1.839 4.054-4.107 4.054s-4.107-1.804-4.107-4.054c0-2.232 1.839-4.054 4.107-4.054s4.107 1.821 4.107 4.054zM20.571 29.143v-24.571h-18.286v24.571c0 0.304 0.268 0.571 0.571 0.571h17.143c0.304 0 0.571-0.268 0.571-0.571zM22.857 2.857v26.286c0 1.571-1.286 2.857-2.857 2.857h-17.143c-1.571 0-2.857-1.286-2.857-2.857v-26.286c0-1.571 1.286-2.857 2.857-2.857h6.286v1.714c0 0.321 0.25 0.571 0.571 0.571h3.429c0.321 0 0.571-0.25 0.571-0.571v-1.714h6.286c1.571 0 2.857 1.286 2.857 2.857z"></path>
</svg>

<svg xmlns="http://www.w3.org/2000/svg" width="23" height="32"><path d="M18.286 22.464c0 1.536-1.018 2.679-2.286 2.679H6.857c-1.268 0-2.286-1.143-2.286-2.679 0-2.786.696-5.875 3.5-5.875.875.821 2.054 1.339 3.357 1.339s2.482-.518 3.357-1.339c2.804 0 3.5 3.089 3.5 5.875zm-2.75-9.268c0 2.25-1.839 4.054-4.107 4.054s-4.107-1.804-4.107-4.054c0-2.232 1.839-4.054 4.107-4.054s4.107 1.821 4.107 4.054zm5.035 15.947V4.572H2.285v24.571c0 .304.268.571.571.571h17.143a.587.587 0 0 0 .571-.571zm2.286-26.286v26.286A2.866 2.866 0 0 1 20 32H2.857A2.866 2.866 0 0 1 0 29.143V2.857A2.866 2.866 0 0 1 2.857 0h6.286v1.714c0 .321.25.571.571.571h3.429c.321 0 .571-.25.571-.571V0H20a2.866 2.866 0 0 1 2.857 2.857z"/></svg>
